svg/protocol.svg

<svg viewBox="0 0 24 24" fill="none" xmlns="http://www.w3.org/2000/svg"><path fill-rule="evenodd" clip-rule="evenodd" d="M22 12C22 17.5228 17.5228 22 12 22C6.47715 22 2 17.5228 2 12C2 6.47715 6.47715 2 12 2C17.5228 2 22 6.47715 22 12ZM11.8104 19.9978C11.9269 19.8258 12.0639 19.6117 12.212 19.3572C12.5111 18.8431 12.8544 18.1657 13.1663 17.3382C12.9879 17.3233 12.8084 17.3101 12.6278 17.2987C11.9536 17.2562 11.2715 17.2398 10.5929 17.2563C10.8669 18.1335 11.2168 19.0463 11.6554 19.9927C11.7069 19.9949 11.7586 19.9966 11.8104 19.9978ZM9.897 19.7207C9.55842 18.9089 9.28019 18.1195 9.05511 17.354C8.53381 17.4089 8.01993 17.4871 7.51892 17.5915C7.73118 18.0727 7.97418 18.5653 8.25086 19.0689C8.7684 19.344 9.31972 19.5638 9.897 19.7207ZM5.45938 16.6077C5.48104 16.6001 5.50273 16.5925 5.52445 16.585C4.46623 13.3833 4.62347 10.6454 5.21707 8.50224C5.09245 8.46738 4.97167 8.43251 4.85496 8.39777C4.30807 9.4804 4 10.7042 4 12C4 13.7156 4.54003 15.3051 5.45938 16.6077ZM5.69311 7.07772C5.69614 7.07856 5.69918 7.07939 5.70221 7.08023C5.70623 7.07039 5.71025 7.06056 5.71427 7.05076C5.7072 7.05973 5.70015 7.06872 5.69311 7.07772ZM8.96894 4.59417C8.93129 4.63447 8.8765 4.69478 8.80813 4.77455C8.66145 4.94568 8.45292 5.20563 8.21744 5.5491C7.8904 6.02611 7.51351 6.66107 7.17773 7.44022C7.68086 7.54828 8.21954 7.64986 8.78391 7.73875L8.79848 7.68326C9.18148 6.23496 9.70589 5.06597 10.1744 4.20925C9.75921 4.30615 9.35646 4.43539 8.96894 4.59417ZM12.0548 4.00018C11.938 4.17254 11.8005 4.38729 11.6519 4.64277C11.2113 5.40008 10.6747 6.5116 10.2841 7.93527C10.6414 7.97247 11.0048 8.00331 11.3722 8.02649C12.1215 8.07374 12.8805 8.08863 13.6336 8.06207C13.3315 6.79045 12.8705 5.435 12.2062 4.00261C12.1559 4.00133 12.1054 4.00052 12.0548 4.00018ZM15.0311 19.4058C14.5954 19.5843 14.1406 19.7255 13.6705 19.8253C14.0078 19.2125 14.3757 18.4365 14.6998 17.5098C15.227 17.5833 15.7354 17.6688 16.2175 17.7617C16.0682 18.019 15.9209 18.2491 15.7826 18.4509C15.5471 18.7944 15.3386 19.0543 15.1919 19.2255C15.1235 19.3052 15.0687 19.3655 15.0311 19.4058ZM18.4508 16.7325C19.4247 15.4072 20 13.7708 20 12C20 10.7332 19.7056 9.53525 19.1814 8.47072C19.0626 8.52056 18.9428 8.56843 18.8221 8.61438C19.5339 11.495 19.2703 13.9558 18.6676 15.8898C18.5781 16.1768 18.4814 16.4516 18.3797 16.7138C18.4035 16.72 18.4272 16.7262 18.4508 16.7325ZM15.7491 4.93109C16.2637 5.8677 16.6617 6.76614 16.9623 7.6241C16.3749 7.76946 15.7668 7.87585 15.147 7.94868C14.8822 6.77294 14.493 5.53469 13.9502 4.23938C14.5831 4.39792 15.1861 4.63186 15.7491 4.93109ZM6.67301 8.86539C7.23389 8.98964 7.83778 9.10647 8.47251 9.20809C8.16114 11.101 8.13055 13.3457 8.68042 15.8864C8.10403 15.9541 7.53135 16.0491 6.96921 16.176C5.97706 13.2159 6.14482 10.7469 6.67301 8.86539ZM9.9596 9.4091C9.66322 11.1785 9.63171 13.3152 10.1908 15.7687C11.047 15.7336 11.8982 15.7497 12.7222 15.8017C13.0281 15.8209 13.3313 15.8453 13.6308 15.8739C14.0706 14.1822 14.3018 12.0541 13.9234 9.55152C13.0288 9.59288 12.1384 9.57779 11.2778 9.52351C10.8317 9.49538 10.3912 9.45656 9.9596 9.4091ZM16.9025 16.3689C16.3454 16.2539 15.7517 16.1474 15.1319 16.0564C15.5821 14.232 15.7965 12.0001 15.4213 9.42649C16.0858 9.3447 16.7447 9.22621 17.3877 9.06387C18.0053 11.6354 17.7519 13.7864 17.2355 15.4435C17.1337 15.7703 17.0212 16.0789 16.9025 16.3689Z" fill="#6F7682"/></svg>

<svg viewBox="0 0 24 24" fill="none" xmlns="http://www.w3.org/2000/svg"><path fill-rule="evenodd" clip-rule="evenodd" d="M22 12c0 5.523-4.477 10-10 10S2 17.523 2 12 6.477 2 12 2s10 4.477 10 10zm-10.19 7.998c.117-.172.254-.386.402-.64.3-.515.642-1.192.954-2.02a23.384 23.384 0 00-2.573-.082c.274.878.624 1.79 1.062 2.737l.155.005zm-1.913-.277a23.011 23.011 0 01-.842-2.367c-.521.055-1.035.133-1.536.238.212.48.455.973.732 1.477a7.947 7.947 0 001.646.652zm-4.438-3.113l.065-.023c-1.058-3.202-.9-5.94-.307-8.083l-.362-.104A7.966 7.966 0 004 12a7.96 7.96 0 001.46 4.608zm.234-9.53l.01.002.011-.03a9.295 9.295 0 00-.02.028zM8.97 4.594a9.135 9.135 0 00-.752.955 11.185 11.185 0 00-1.04 1.891c.504.108 1.043.21 1.607.299l.014-.056a15.54 15.54 0 011.376-3.474 7.936 7.936 0 00-1.205.385zM12.055 4a11.06 11.06 0 00-.403.643c-.44.757-.977 1.869-1.368 3.292.357.037.72.068 1.088.091.75.048 1.508.063 2.262.036a21.41 21.41 0 00-1.428-4.06A8.09 8.09 0 0012.055 4zm2.976 15.406c-.436.178-.89.32-1.36.42.337-.614.705-1.39 1.029-2.316a29.74 29.74 0 011.518.252c-.15.257-.297.487-.435.689a9.144 9.144 0 01-.752.955zm3.42-2.673A7.964 7.964 0 0020 12a7.967 7.967 0 00-.819-3.53c-.118.05-.238.098-.359.144.712 2.881.448 5.342-.154 7.276-.09.287-.187.562-.288.824l.07.019zM15.749 4.93c.515.937.913 1.835 1.213 2.693-.587.145-1.195.252-1.815.325a22.234 22.234 0 00-1.197-3.71 7.946 7.946 0 011.8.692zM6.673 8.865c.56.125 1.165.241 1.8.343-.312 1.893-.342 4.138.207 6.678a16.54 16.54 0 00-1.71.29c-.993-2.96-.825-5.43-.297-7.31zm3.287.544c-.297 1.77-.328 3.906.23 6.36a24.426 24.426 0 012.532.033c.306.019.61.043.909.072.44-1.692.67-3.82.292-6.322-.894.04-1.785.026-2.645-.028a28.454 28.454 0 01-1.318-.115zm6.942 6.96a31.193 31.193 0 00-1.77-.313c.45-1.824.665-4.056.29-6.63a16.05 16.05 0 001.966-.362c.617 2.571.364 4.722-.153 6.38-.101.326-.214.635-.332.925z" fill="#6F7682"/></svg>
